job-listings-with-filtering/img/header-bg.svg

<svg width="1366" height="156" viewBox="0 0 1366 156" fill="none" xmlns="http://www.w3.org/2000/svg">
<rect width="1366" height="156" fill="#5CA5A5"/>
<mask id="mask0" mask-type="alpha" maskUnits="userSpaceOnUse" x="0" y="0" width="1366" height="156">
<rect width="1366" height="156" fill="white"/>
</mask>
<g mask="url(#mask0)">
<path fill-rule="evenodd" clip-rule="evenodd" d="M842.498 563.441C893.931 614.867 977.314 614.867 1028.75 563.441L1425.41 166.838C1476.85 115.402 1476.85 31.9987 1425.41 -19.4379C1373.97 -70.8643 1290.59 -70.8642 1239.16 -19.4379L1060.98 158.71C1104.81 106.96 1102.31 29.3699 1053.5 -19.4379C1002.07 -70.8643 918.683 -70.8642 867.249 -19.4379L470.591 377.165C419.147 428.602 419.147 512.004 470.591 563.441C522.024 614.867 605.407 614.867 656.841 563.441L835.013 385.293C791.188 437.043 793.683 514.633 842.498 563.441Z" fill="#63BABA"/>
<path fill-rule="evenodd" clip-rule="evenodd" d="M-102.41 117.441C-50.9759 168.867 32.4069 168.867 83.8405 117.441L480.499 -279.162C531.943 -330.598 531.943 -414.001 480.499 -465.438C429.065 -516.864 345.683 -516.864 294.249 -465.438L-102.41 -68.8351C-153.853 -17.3985 -153.853 66.0045 -102.41 117.441ZM342.283 45.6169C393.716 97.0432 477.099 97.0432 528.532 45.6168L925.191 -350.986C976.635 -402.423 976.635 -485.825 925.191 -537.262C873.757 -588.688 790.375 -588.688 738.941 -537.262L342.282 -140.659C290.839 -89.2227 290.839 -5.81975 342.283 45.6169Z" fill="#63BABA"/>
</g>
</svg>

<svg width="1366" height="156" fill="none" xmlns="http://www.w3.org/2000/svg"><path fill="#5CA5A5" d="M0 0h1366v156H0z"/><mask id="prefix__a" mask-type="alpha" maskUnits="userSpaceOnUse" x="0" y="0" width="1366" height="156"><path fill="#fff" d="M0 0h1366v156H0z"/></mask><g mask="url(#prefix__a)" fill-rule="evenodd" clip-rule="evenodd" fill="#63BABA"><path d="M842.498 563.441c51.433 51.426 134.816 51.426 186.252 0l396.66-396.603c51.44-51.436 51.44-134.84 0-186.276-51.44-51.426-134.82-51.426-186.25 0L1060.98 158.71c43.83-51.75 41.33-129.34-7.48-178.148-51.43-51.426-134.817-51.426-186.251 0L470.591 377.165c-51.444 51.437-51.444 134.839 0 186.276 51.433 51.426 134.816 51.426 186.25 0l178.172-178.148c-43.825 51.75-41.33 129.34 7.485 178.148zM-102.41 117.441c51.434 51.426 134.817 51.426 186.25 0L480.5-279.162c51.444-51.436 51.444-134.839 0-186.276-51.434-51.426-134.816-51.426-186.25 0L-102.41-68.835c-51.443 51.436-51.443 134.84 0 186.276zm444.693-71.824c51.433 51.426 134.816 51.426 186.249 0l396.659-396.603c51.444-51.437 51.444-134.839 0-186.276-51.434-51.426-134.816-51.426-186.25 0L342.282-140.659c-51.443 51.436-51.443 134.84.001 186.276z"/></g></svg>
